assets/images/badge.svg

<svg width="256" height="38" fill="none" xmlns="http://www.w3.org/2000/svg"><path fill="#543018" d="M13 0h231v38H13zM0 0h13v38H0l8-19.5L0 0z"/><path d="M256 38h-13V0h13l-8 19.5 8 18.5z" fill="#543018"/><path d="M26.034 21.488c.168.266.224.462.224.602 0 .644-1.022.56-1.022.826V23h5.166v-.084c0-.308-.882 0-1.722-1.316l-2.618-4.088 1.204-1.722c1.54-2.184 2.814-1.764 2.8-2.128v-.084h-3.542v.098c0 .336 1.036.098 1.036.784 0 .252-.154.602-.518 1.148l-1.12 1.694-1.26-1.96c-.252-.392-.42-.714-.42-.91 0-.644 1.036-.462 1.036-.77v-.084H20.35v.084c0 .252.784.07 1.708 1.54l2.24 3.556-1.638 2.282c-1.4 1.96-2.562 1.526-2.562 1.876V23h3.598v-.084c0-.336-1.176-.084-1.176-.84 0-.294.308-.798.728-1.386l1.19-1.722 1.596 2.52zm14.896.084c0 1.414-1.232 1.008-1.232 1.344V23h4.858v-.084c0-.392-1.344.154-1.344-1.512v-6.538c0-1.26 1.344-.868 1.344-1.204v-.084h-4.858v.084c0 .336 1.232-.028 1.232 1.218v.252l-3.682 5.726v-5.992c0-1.232 1.274-.868 1.274-1.204v-.084h-4.844v.084c0 .336 1.288-.028 1.288 1.218v6.524c0 1.638-1.288 1.148-1.288 1.512V23h4.844v-.084c0-.336-1.274.084-1.274-1.344v-.252c.84-1.05 2.842-4.676 3.682-5.726v5.978zm11.548-8.008c-2.002 0-3.15-.056-4.27-.308L47.83 16.7a.126.126 0 00.07.014c.112 0 .182-.084.238-.252.672-1.932 1.344-2.646 2.856-2.646h.35v7.742C51.344 23 50 22.58 50 22.916V23h4.984v-.084c0-.35-1.372.084-1.372-1.344 0-2.59-.014-5.166-.014-7.756h.364c1.512 0 2.184.714 2.856 2.646.056.168.126.252.238.252.028 0 .042 0 .07-.014l-.378-3.444c-1.12.252-2.268.308-4.27.308zm19.776 1.316c0-1.246 1.33-.868 1.33-1.204v-.098H68.67v.098c0 .336 1.302-.056 1.302 1.204v6.538c0 1.624-1.302 1.134-1.302 1.498V23h4.914v-.084c0-.35-1.33.126-1.33-1.498V14.88zm-8.778 2.646V15.09c0-1.47 1.344-1.064 1.344-1.414v-.098h-4.942v.098c0 .336 1.302-.056 1.302 1.428v6.244c0 1.708-1.302 1.218-1.302 1.568V23h5.516c2.716 0 3.584-1.61 3.584-2.786 0-2.24-2.114-2.828-3.808-2.828-.546 0-1.106.056-1.694.14zm0 .238c.196-.028.392-.042.588-.042 1.414 0 2.492.798 2.492 2.548 0 1.484-.882 2.506-2.058 2.506-.966 0-1.022-.644-1.022-1.442v-3.57zm29.76-2.884c0-1.246 1.343-.882 1.343-1.204v-.098H83.617v.098c0 .322 1.33-.056 1.33 1.218v6.664c0 1.442-1.33 1.022-1.33 1.358V23h4.872v-.084c0-.35-1.274.084-1.274-1.344v-7.756h3.752v7.616c0 1.568-1.246 1.162-1.246 1.484V23h4.886v-.084c0-.392-1.372.168-1.372-1.764V14.88zm5.516 6.678c0 1.428-1.344 1.036-1.344 1.358V23h4.956v-.084c0-.35-1.33.084-1.33-1.344 0-.812-.014-1.624-.014-2.436.406.07.896.098 1.316.098 1.988 0 3.892-.854 3.892-2.898 0-1.918-1.764-2.772-4.046-2.772h-4.76v.098c0 .364 1.33-.084 1.33 1.26v6.636zm2.268-7.742h.588c1.246 0 2.184.938 2.184 2.548 0 1.582-.882 2.576-2.408 2.576-.126 0-.252-.014-.364-.042v-5.082zm7.858 4.466c0 2.632 1.666 4.886 5.012 4.886 3.262 0 5.096-2.338 5.096-4.914 0-2.548-1.708-4.858-5.082-4.858-3.136 0-5.026 2.212-5.026 4.886zm2.576 0c0-2.282.602-4.648 2.45-4.648 1.96 0 2.506 2.17 2.506 4.704 0 2.464-.574 4.606-2.45 4.606-1.946 0-2.506-2.184-2.506-4.662zm20.883 4.354c-.49.084-1.12.112-1.638.112V14.88c0-1.274 1.274-.868 1.274-1.218v-.098h-8.47v.112c0 .35 1.624-.042 1.624 1.232-.112 2.87-.532 6.37-1.89 7.84-.308 0-.938-.028-1.4-.098-.014 0-.014.014-.028.014l.21 3.234h.084c.112 0 .154-.028.21-.28.112-.616.266-1.218.434-1.778.21-.7.462-.84 1.736-.84h5.068c1.134 0 1.596.042 1.862.854.182.56.336 1.148.448 1.764.042.238.112.28.196.28h.098c.084-1.078.154-2.184.224-3.248-.014 0-.028-.014-.042-.014zm-8.778.112c1.386-1.456 1.834-4.9 1.876-8.904h2.996v8.918c-1.624 0-3.248-.014-4.872-.014zm18.39-1.358c.14.392.21.602.21.742 0 .714-.966.518-.966.784V23h4.48v-.084c0-.28-.826.014-1.316-1.274l-3.038-8.078h-3.038v.112c0 .322 1.316.056 1.316 1.022 0 .154-.042.336-.126.56-.756 2.03-1.54 4.032-2.296 6.062-.644 1.708-1.918 1.246-1.918 1.596V23h3.444v-.084c0-.308-1.344-.028-1.344-1.022 0-.168.098-.504.154-.644l.434-1.204h3.5l.504 1.344zm-2.212-5.992l1.624 4.41h-3.332l1.624-4.41h.084zm16.825-.518c0-1.26 1.33-.868 1.33-1.204v-.098h-4.914v.098c0 .336 1.302-.042 1.302 1.204v2.968h-.224c-1.484 0-1.932-1.134-2.506-2.758l-.056-.154c-.252-.798-.63-1.568-1.624-1.568-.728 0-1.19.462-1.19 1.008s.49.98 1.064.98c.518 0 1.078-.294 1.246-.938.42.91.784 2.856 1.974 3.43v.07c-1.708 0-2.436.602-3.038 2.24-.7 1.89-.98 2.604-1.694 2.604-.084 0-.154 0-.252-.028a1.38 1.38 0 00-.028.238c.322.14.798.238 1.316.238 2.03 0 2.324-1.358 2.898-3.052.364-1.064.658-2.044 1.722-2.044h.392v3.472c0 1.414-1.274.994-1.274 1.33V23h4.886v-.084c0-.336-1.33.084-1.33-1.33v-3.472h.392c1.4 0 1.498 1.75 2.198 3.458.392.98.924 1.652 2.366 1.652a4.08 4.08 0 001.386-.252c-.014-.07-.042-.168-.042-.252-.126.028-.21.056-.294.056-.658 0-.966-.798-1.638-2.674-.574-1.61-1.33-2.184-3.052-2.184v-.07c1.19-.574 1.554-2.52 1.988-3.43.154.672.826.938 1.218.938.56 0 1.064-.364 1.064-.98 0-.378-.266-.742-.714-.854a.734.734 0 00-.462-.154c-.952 0-1.316.686-1.582 1.456-.574 1.638-1.036 3.024-2.52 3.024h-.308V14.88zm20.273-1.316c-2.002 0-3.15-.056-4.27-.308l-.378 3.444c.028.014.042.014.07.014.112 0 .182-.084.238-.252.672-1.932 1.344-2.646 2.856-2.646h.35v7.742c0 1.442-1.344 1.022-1.344 1.358V23h4.984v-.084c0-.35-1.372.084-1.372-1.344 0-2.59-.014-5.166-.014-7.756h.364c1.512 0 2.184.714 2.856 2.646.056.168.126.252.238.252.028 0 .042 0 .07-.014l-.378-3.444c-1.12.252-2.268.308-4.27.308zm7.581 4.718c0 2.632 1.666 4.886 5.012 4.886 3.262 0 5.096-2.338 5.096-4.914 0-2.548-1.708-4.858-5.082-4.858-3.136 0-5.026 2.212-5.026 4.886zm2.576 0c0-2.282.602-4.648 2.45-4.648 1.96 0 2.506 2.17 2.506 4.704 0 2.464-.574 4.606-2.45 4.606-1.946 0-2.506-2.184-2.506-4.662zm20.323-3.402c0-1.246 1.344-.882 1.344-1.204v-.098h-10.962v.098c0 .322 1.33-.056 1.33 1.218v6.664c0 1.442-1.33 1.022-1.33 1.358V23h4.872v-.084c0-.35-1.274.084-1.274-1.344v-7.756h3.752v7.616c0 1.568-1.246 1.162-1.246 1.484V23h4.886v-.084c0-.392-1.372.168-1.372-1.764V14.88zm7.827 4.984v-.63h-3.612v.63h3.612zm8.29-6.314l-3.402.84c0 .196.126.224.266.224h.21c.49 0 .994 0 .994.938v6.258c0 1.12-1.162.77-1.162 1.092V23h4.298v-.098c0-.322-1.148.056-1.148-1.008v-8.288c-.014-.014-.042-.028-.056-.056zm6.354 4.802c0 2.422.994 4.83 3.626 4.83 2.632 0 3.64-2.562 3.64-4.844 0-2.338-.896-4.746-3.626-4.746-2.548 0-3.64 2.394-3.64 4.76zm2.184.014c0-2.394.336-4.564 1.456-4.564 1.162 0 1.456 1.834 1.456 4.578 0 2.632-.308 4.606-1.442 4.606s-1.47-1.988-1.47-4.62z" fill="#fff"/></svg>

<svg width="256" height="38" viewBox="0 0 256 38" fill="none" xmlns="http://www.w3.org/2000/svg">
<path d="M13 0H244V38H13V0Z" fill="#543018"/>
<path d="M0 0H13V38H0L8 18.5L0 0Z" fill="#543018"/>
<path d="M256 38H243V1.1365e-06L256 0L248 19.5L256 38Z" fill="#543018"/>
</svg>
